docs/assets/features/icon-03.svg

<svg width="37" height="37" viewBox="0 0 37 37" fill="none" xmlns="http://www.w3.org/2000/svg">
<path d="M33.5613 21.4677L31.3675 20.1177C30.805 19.7239 30.0175 19.9489 29.6238 20.5114C29.23 21.1302 29.455 21.8614 30.0175 22.2552L31.48 23.2114L18.1488 31.5927L4.76127 23.2114L6.22377 22.2552C6.84252 21.8614 7.01127 21.0739 6.61752 20.5114C6.22377 19.8927 5.43627 19.7239 4.87377 20.1177L2.68002 21.4677C2.11752 21.8614 1.72377 22.4802 1.72377 23.1552C1.72377 23.8302 2.06127 24.5052 2.68002 24.8427L17.08 33.8989C17.4175 34.1239 17.755 34.1802 18.1488 34.1802C18.5425 34.1802 18.88 34.0677 19.2175 33.8989L33.5613 24.8989C34.1238 24.5052 34.5175 23.8864 34.5175 23.2114C34.5175 22.5364 34.18 21.8614 33.5613 21.4677Z" fill="white"/>
<path d="M20.1175 20.4552L18.1488 21.6364L16.18 20.3989C15.5613 20.0052 14.83 20.2302 14.4363 20.7927C14.0425 21.4114 14.2675 22.1427 14.83 22.5364L17.4738 24.1677C17.6988 24.2802 17.9238 24.3364 18.1488 24.3364C18.3738 24.3364 18.5988 24.2802 18.8238 24.1677L21.4675 22.5364C22.0863 22.1427 22.255 21.3552 21.8613 20.7927C21.4675 20.2302 20.68 20.0614 20.1175 20.4552Z" fill="white"/>
<path d="M7.74252 18.0927L11.455 20.4552C11.68 20.5677 11.905 20.6239 12.13 20.6239C12.5238 20.6239 12.9738 20.3989 13.1988 20.0052C13.5925 19.3864 13.3675 18.6552 12.805 18.2614L9.09252 15.8989C8.47377 15.5052 7.74252 15.7302 7.34877 16.2927C6.95502 16.9677 7.12377 17.7552 7.74252 18.0927Z" fill="white"/>
<path d="M5.04252 16.1802C5.43627 16.1802 5.88627 15.9552 6.11127 15.5614C6.50502 14.9427 6.28002 14.2114 5.71752 13.8177L4.81752 13.2552L5.71752 12.6927C6.33627 12.2989 6.50502 11.5114 6.11127 10.9489C5.71752 10.3302 4.93002 10.1614 4.36752 10.5552L1.72377 12.1864C1.33002 12.4114 1.10502 12.8052 1.10502 13.2552C1.10502 13.7052 1.33002 14.0989 1.72377 14.3239L4.36752 15.9552C4.53627 16.1239 4.76127 16.1802 5.04252 16.1802Z" fill="white"/>
<path d="M8.41752 10.7239C8.64252 10.7239 8.86752 10.6677 9.09252 10.5552L12.805 8.1927C13.4238 7.79895 13.5925 7.01145 13.1988 6.44895C12.805 5.8302 12.0175 5.66145 11.455 6.0552L7.74252 8.4177C7.12377 8.81145 6.95502 9.59895 7.34877 10.1614C7.57377 10.4989 7.96752 10.7239 8.41752 10.7239Z" fill="white"/>
<path d="M16.18 6.05522L18.1488 4.81772L20.1175 6.05522C20.3425 6.16772 20.5675 6.22397 20.7925 6.22397C21.1863 6.22397 21.6363 5.99897 21.8613 5.60522C22.255 4.98647 22.03 4.25522 21.4675 3.86147L18.8238 2.23022C18.43 1.94897 17.8675 1.94897 17.4738 2.23022L14.83 3.86147C14.2113 4.25522 14.0425 5.04272 14.4363 5.60522C14.83 6.16772 15.6175 6.44897 16.18 6.05522Z" fill="white"/>
<path d="M23.4925 8.19267L27.205 10.5552C27.43 10.6677 27.655 10.7239 27.88 10.7239C28.2738 10.7239 28.7238 10.4989 28.9488 10.1052C29.3425 9.48642 29.1175 8.75517 28.555 8.36142L24.8425 5.99892C24.28 5.60517 23.4925 5.83017 23.0988 6.39267C22.705 7.01142 22.8738 7.79892 23.4925 8.19267Z" fill="white"/>
<path d="M34.5738 12.1864L31.93 10.5552C31.3675 10.1614 30.58 10.3864 30.1863 10.9489C29.7925 11.5677 30.0175 12.2989 30.58 12.6927L31.48 13.2552L30.58 13.8177C29.9613 14.2114 29.7925 14.9989 30.1863 15.5614C30.4113 15.9552 30.8613 16.1802 31.255 16.1802C31.48 16.1802 31.705 16.1239 31.93 16.0114L34.5738 14.3802C34.9675 14.1552 35.1925 13.7614 35.1925 13.3114C35.1925 12.8614 34.9675 12.4114 34.5738 12.1864Z" fill="white"/>
<path d="M24.1675 20.624C24.3925 20.624 24.6175 20.5677 24.8425 20.4552L28.555 18.0927C29.1738 17.699 29.3425 16.9115 28.9488 16.349C28.555 15.7302 27.7675 15.5615 27.205 15.9552L23.4925 18.3177C22.8738 18.7115 22.705 19.499 23.0988 20.0615C23.3238 20.4552 23.7175 20.624 24.1675 20.624Z" fill="white"/>
</svg>

<svg xmlns="http://www.w3.org/2000/svg" width="37" height="37" fill="none"><path fill="#fff" d="m33.561 21.468-2.193-1.35c-.563-.394-1.35-.17-1.744.393-.394.62-.169 1.35.393 1.744l1.463.956-13.331 8.382L4.76 23.21l1.463-.956c.619-.394.787-1.181.394-1.744-.394-.618-1.182-.787-1.744-.393l-2.194 1.35c-.562.393-.956 1.012-.956 1.687s.337 1.35.956 1.688l14.4 9.056c.338.225.675.281 1.069.281s.731-.112 1.069-.281l14.343-9c.563-.394.956-1.013.956-1.688s-.337-1.35-.956-1.743"/><path fill="#fff" d="m20.118 20.455-1.97 1.181L16.18 20.4c-.619-.394-1.35-.169-1.744.394-.393.618-.168 1.35.394 1.743l2.644 1.632q.338.168.675.168t.675-.168l2.643-1.632c.62-.393.788-1.18.394-1.743-.393-.563-1.181-.732-1.744-.338M7.743 18.093l3.712 2.362q.337.17.675.169c.394 0 .844-.225 1.069-.619.393-.619.168-1.35-.394-1.744L9.093 15.9c-.62-.394-1.35-.169-1.744.394-.394.675-.225 1.462.394 1.8m-2.7-1.914c.393 0 .843-.225 1.068-.619.394-.618.169-1.35-.393-1.743l-.9-.563.9-.562c.618-.394.787-1.182.393-1.744-.393-.619-1.181-.788-1.743-.394l-2.644 1.631a1.2 1.2 0 0 0-.619 1.07c0 .45.225.843.619 1.068l2.644 1.631c.168.169.393.225.675.225m3.375-5.456q.337 0 .675-.169l3.712-2.362c.619-.394.787-1.182.394-1.744-.394-.619-1.181-.788-1.744-.394L7.743 8.418c-.62.393-.788 1.181-.394 1.743a1.28 1.28 0 0 0 1.069.563m7.762-4.669 1.969-1.237 1.968 1.237q.338.17.675.169c.394 0 .844-.225 1.07-.619.393-.619.168-1.35-.394-1.744l-2.644-1.63a1.185 1.185 0 0 0-1.35 0L14.83 3.86c-.619.394-.787 1.182-.394 1.744.394.563 1.181.844 1.744.45m7.313 2.139 3.712 2.362q.337.17.675.169c.394 0 .844-.225 1.069-.619.393-.619.168-1.35-.394-1.744L24.843 6c-.563-.394-1.35-.169-1.744.394a1.286 1.286 0 0 0 .393 1.8m11.082 3.992-2.644-1.63c-.562-.395-1.35-.17-1.744.393-.393.619-.169 1.35.394 1.744l.9.562-.9.563c-.619.393-.787 1.18-.394 1.743.225.394.675.62 1.069.62q.338 0 .675-.17l2.644-1.63c.394-.226.619-.62.619-1.07s-.225-.9-.62-1.125m-10.405 8.438q.337 0 .675-.169l3.712-2.362c.619-.394.788-1.181.394-1.744-.394-.619-1.182-.787-1.744-.394l-3.712 2.363c-.62.393-.788 1.181-.394 1.743.225.394.619.563 1.069.563"/></svg>
